X:1
T:Title
%%score ( 1 2 ) ( 3 4 )
L:1/8
Q:1/4=90
M:4/4
K:E
V:1 treble nm="Strings 1, Treble"
V:2 treble 
V:3 bass nm="Strings 1, Bass"
V:4 bass 
V:1
 z4 z2 EG | [GB]2 [GB]2 [GB]2 [EG]2 | [B,E]4 B,2 B,2 | [B,E]3 [B,E][K:treble] [B,E]2 [EG]2 | %4
 [DF]6 EG | [GB]2 [GB]2 [GB]2 [EG]2 | [EA]4 [Ac]2 [Ac]2 | [Ac]2 [GB]2 [FB]2 [E^A]2 | %8
 [DB]6 [EG][B,F] | [B,E]2 [B,E]2 B,2 B,2 | [B,E]6[K:treble] [EG]2 | [DF]2 [DF]2 [DA]2 [DA]2 | %12
 [EG]6 GA | [GB]2 [GB]2 [EG]2 [B,E]2 | [B,E]4 B,2 [B,E]2 | [B,D]2 [B,E]2 [DF]2 [DF]2 | [EG]6 GA | %17
 [GB]2 [GB]2 [EG]2 [B,E]2 | [B,E]4 B,2 [B,E]2 | [B,D]2 [B,E]2 [DF]2 [DF]2 | E6 z2 |] %21
V:2
 x8 | x8 | x8 | x4[K:treble] x4 | x8 | x8 | x8 | x8 | x8 | x8 | x6[K:treble] x2 | x8 | z4 z2 E2 | %13
 x8 | x8 | x8 | z4 z2 E2 | x8 | x8 | x8 | x8 |] %21
V:3
 z4 z2 G,B, | [E,E]2 [E,E]2 [E,E]2 [E,B,]2 | [E,G,]6 [E,G,]2 | [E,G,]3 [E,G,] [E,G,]2 [E,B,]2 | %4
w: 1.~I~ *|stood~ out side~ the~|gate,~ A~|poor~ way far ing~|
 [B,,B,]6 G,B, | [E,E]2 [E,E]2 [E,E]2 [E,B,]2 | C4 E2 [A,,E]2 | [E,E]2 [E,E]2 [F,D]2 [F,C]2 | %8
w: child;~ With *|in~ my~ heart~ there~|beat~ * A~|tem pest~ loud~ and~|
 [B,,B,]6 B,A, | [E,G,]2 [E,G,]2 [E,G,]2 [E,G,]2 | [E,G,]6 [E,B,]2 | %11
w: wild;~ A~ *|fear~ op pressed~ my~|soul,~ That~|
 [B,,B,]2 [B,,B,]2 [B,,B,]2 [B,,B,]2 | [E,B,]6 [E,B,]2 | [E,E]2 [E,E]2 [E,B,]2 [E,G,]2 | %14
w: I~ might~ be~ too~|late;~ And,~|oh,~ I~ trem bled~|
 [E,G,]6 [E,G,]2 | [B,,F,]2 [B,,G,]2 [B,,B,]2 [B,,B,]2 | [E,B,]6 [E,B,]2 | %17
w: sore,~ And~|prayed~ out side~ the~|gate;~ And,~|
 [E,E]2 [E,E]2 [E,B,]2 [E,G,]2 | [E,G,]6 [E,G,]2 | [B,,F,]2 [B,,G,]2 [B,,A,]2 [B,,A,]2 | %20
w: oh,~ I~ trem bled~|sore,~ And~|prayed~ out side~ the~|
 [E,G,]6 z2 |] %21
w: gate.~|
V:4
 z4 z2 E,2 | x8 | x8 | x8 | z4 z2 E,2 | x8 | A,,6 z2 | x8 | z4 z2 E,2 | x8 | x8 | x8 | x8 | x8 | %14
 x8 | x8 | x8 | x8 | x8 | x8 | x8 |] %21

